src/assets/VK_Mobile.svg

<svg width="50" height="50" viewBox="0 0 50 50" fill="none" xmlns="http://www.w3.org/2000/svg">
<path fill-rule="evenodd" clip-rule="evenodd" d="M24.5279 36.9965H27.1579C27.1579 36.9965 27.9521 36.909 28.3582 36.472C28.7314 36.0704 28.7195 35.3168 28.7195 35.3168C28.7195 35.3168 28.6681 31.7879 30.3056 31.2683C31.9205 30.7561 33.9937 34.6788 36.1911 36.1873C37.8528 37.3284 39.1156 37.0786 39.1156 37.0786L44.9916 36.9965C44.9916 36.9965 48.0653 36.8069 46.6078 34.3901C46.4885 34.1927 45.7587 32.6025 42.2387 29.3351C38.5539 25.9153 39.0478 26.4686 43.4861 20.5532C46.189 16.9507 47.2693 14.7515 46.9317 13.8097C46.6101 12.9123 44.6219 13.1493 44.6219 13.1493L38.006 13.1902C38.006 13.1902 37.5152 13.1234 37.1517 13.341C36.7961 13.5537 36.5679 14.0507 36.5679 14.0507C36.5679 14.0507 35.5204 16.8382 34.1244 19.2093C31.1784 24.2116 30.0002 24.4764 29.5187 24.1653C28.3983 23.4413 28.6783 21.2572 28.6783 19.7052C28.6783 14.8572 29.4136 12.8359 27.2463 12.3126C26.5273 12.1391 25.9975 12.0243 24.1583 12.0056C21.7975 11.9815 19.7998 12.0128 18.6685 12.5671C17.9158 12.9357 17.3351 13.7568 17.689 13.8041C18.1263 13.8623 19.1164 14.0713 19.6413 14.7856C20.3195 15.7083 20.2958 17.7795 20.2958 17.7795C20.2958 17.7795 20.6855 23.4863 19.386 24.195C18.4943 24.6812 17.2709 23.6887 14.6444 19.1502C13.2989 16.8255 12.2827 14.2556 12.2827 14.2556C12.2827 14.2556 12.087 13.7754 11.7375 13.5184C11.3135 13.2069 10.7212 13.1083 10.7212 13.1083L4.43412 13.1493C4.43412 13.1493 3.49055 13.1756 3.14379 13.5861C2.83531 13.9514 3.11916 14.7061 3.11916 14.7061C3.11916 14.7061 8.04094 26.2215 13.6144 32.0245C18.7253 37.3457 24.5279 36.9965 24.5279 36.9965Z" fill="#464BFF"/>
</svg>

<svg xmlns="http://www.w3.org/2000/svg" width="50" height="50" fill="none"><path fill="#464BFF" fill-rule="evenodd" d="M24.528 36.997h2.63s.794-.088 1.2-.525c.373-.402.361-1.155.361-1.155s-.05-3.53 1.587-4.049c1.614-.512 3.688 3.41 5.885 4.92 1.662 1.14 2.925.89 2.925.89l5.876-.082s3.073-.19 1.616-2.606c-.12-.197-.85-1.788-4.37-5.055-3.684-3.42-3.19-2.866 1.248-8.782 2.703-3.602 3.783-5.802 3.446-6.743-.322-.898-2.31-.66-2.31-.66l-6.616.04s-.49-.067-.854.151c-.356.213-.584.71-.584.71s-1.048 2.787-2.444 5.158c-2.946 5.003-4.124 5.267-4.605 4.956-1.12-.724-.84-2.908-.84-4.46 0-4.848.735-6.87-1.433-7.392-.719-.174-1.248-.289-3.088-.307-2.36-.024-4.358.007-5.49.561-.752.369-1.333 1.19-.979 1.237.437.058 1.427.267 1.952.982.679.922.655 2.993.655 2.993s.39 5.707-.91 6.416c-.892.486-2.115-.506-4.742-5.045-1.345-2.324-2.361-4.894-2.361-4.894s-.196-.48-.545-.738c-.425-.311-1.017-.41-1.017-.41l-6.287.041s-.943.027-1.29.437c-.309.365-.025 1.12-.025 1.12s4.922 11.516 10.495 17.319c5.111 5.32 10.914 4.971 10.914 4.971" clip-rule="evenodd"/></svg>
